icon-theme/mimetypes/scalable/application-vnd.scribus.svg

<svg height="64" viewBox="0 0 64 64" width="64" xmlns="http://www.w3.org/2000/svg" xmlns:xlink="http://www.w3.org/1999/xlink"><linearGradient id="a" gradientTransform="matrix(1.0749904 0 0 1.0292896 56.688954 -.015285)" gradientUnits="userSpaceOnUse" x1="-74.929466" x2="-75.259552" y1="52.199436" y2="2.356489"><stop offset="0" stop-color="#4864b5"/><stop offset="1" stop-color="#8392be"/></linearGradient><g transform="translate(56.391766 -.176777)"><rect fill="#1f2a47" height="7.69929" ry="2.5" width="44" x="-46.391766" y="54.477486"/><rect fill="url(#a)" height="52.831711" ry="2.5" width="44" x="-46.391766" y="1.645775"/><path d="m-46.391766 51.264462h44v7.911841h-44z" fill="#1f2a47"/><g fill="#fff" transform="matrix(.81954967 0 0 .81954967 -4.334283 10.721775)"><g fill="#fff"><path d="m-36.058552 59.050568-1.98-4.9h1l1.44 3.8h.02l1.46-3.8h.98l-2 4.9z"/><path d="m-30.474333 59.210568q-1.11 0-1.81-.74-.69-.74-.69-1.87 0-1.07.67-1.84.68-.77 1.73-.77 1.09 0 1.74.71.66.71.66 1.9l-.01.17h-3.87q.04.74.49 1.17.46.43 1.07.43.99 0 1.34-.84l.82.34q-.24.57-.79.96-.55.38-1.35.38zm1.32-3.2q-.03-.42-.39-.8-.35-.38-1.05-.38-.51 0-.89.32-.37.32-.51.86z"/><path d="m-25.044177 59.210568q-1.1 0-1.81-.74-.71-.75-.71-1.87 0-1.12.71-1.86.71-.75 1.81-.75.82 0 1.36.4.54.4.79 1.01l-.84.35q-.38-.92-1.37-.92-.61 0-1.08.5-.46.5-.46 1.27 0 .77.46 1.27.47.5 1.08.5 1.03 0 1.42-.92l.82.35q-.25.6-.81 1.01-.55.4-1.37.4z"/><path d="m-20.007927 59.130568q-.77 0-1.18-.41-.4-.41-.4-1.16v-2.57h-.86v-.84h.86v-1.5h.92v1.5h1.2v.84h-1.2v2.5q0 .8.66.8.25 0 .42-.08l.32.79q-.3.13-.74.13z"/><path d="m-18.221365 54.740568q.71-.75 1.81-.75 1.1 0 1.81.75.71.74.71 1.86 0 1.12-.71 1.87-.71.74-1.81.74-1.1 0-1.81-.74-.71-.75-.71-1.87 0-1.12.71-1.86zm.68 3.15q.48.48 1.13.48.65 0 1.12-.48.48-.49.48-1.29 0-.8-.48-1.28-.47-.49-1.12-.49-.65 0-1.13.49-.47.48-.47 1.28 0 .8.47 1.29z"/><path d="m-12.223552 59.050568h-.92v-4.9h.88v.8h.04q.14-.4.57-.66.44-.26.85-.26.41 0 .69.12l-.35.86q-.18-.07-.49-.07-.5 0-.89.4-.38.39-.38 1.03z"/></g><path d="m44.405 355.411h120.029v15.589h43.647v-15.589h120.547v17.622h43.646v-43.646h-16.104v-122.064h15.588v-43.647h-15.588v-113.319h16.105v-43.647h-43.646v8.878h-120.547v-15.588h-43.647v15.588h-120.03v-10.912h-43.647v43.647h15.588v115.353h-15.588v43.647h15.588v120.029h-15.588v43.648h43.647zm-12.47 0v3.118h-18.706v-18.706h3.118 12.471 3.118v3.118 12.47zm144.97-339.823v-3.118h18.706v3.118 6.521 5.949 3.117h-18.706v-3.117-5.949zm18.706 339.823v3.118h-18.706v-3.118-6.521-5.948-3.118h18.706v3.118 5.948zm2.077-162.896c1.212 1.218 1.212 3.19 0 4.408-.615.608-1.406.913-2.21.913-.792 0-1.593-.305-2.205-.913l-7.014-7.015-7.015 7.015c-.612.608-1.409.913-2.207.913s-1.595-.305-2.208-.913c-1.214-1.218-1.214-3.19 0-4.408l7.015-7.015-7.015-7.015c-1.214-1.214-1.214-3.194 0-4.409 1.215-1.215 3.194-1.215 4.409 0l7.021 7.015 7.014-7.015c1.218-1.215 3.191-1.215 4.409 0s1.218 3.194 0 4.409l-7.015 7.015zm162.117 168.047h-18.705v-5.151-12.47-1.084h2.6 12.471 3.635v18.705zm-31.176-31.175v13.555h-97.652c54.425-15.431 97.293-58.298 112.723-112.729v99.174zm30.658-134.534h-3.117-6.521-5.949-3.117v-18.706h3.117 5.949 6.521 3.117zm-18.187-175.672h15.07 3.635v18.706h-3.635-12.471-2.6v-9.828-8.878zm-12.471 8.878v22.298h15.07v90.43c-15.43-54.434-58.298-97.296-112.723-112.729h97.653zm-315.4-10.913h3.118 15.588v10.912 7.794h-3.118-12.471-3.118v-18.706zm31.176 31.177v-20.264h97.134c-54.428 15.432-97.289 58.294-112.722 112.722v-92.458h15.588zm-31.176 127.823h3.118 6.521 5.949 3.118v18.706h-3.118-5.949-6.521-3.118zm15.588 54.067c15.433 54.431 58.294 97.298 112.723 112.729h-97.135v-15.589h-15.588z" fill="#1f2a47" transform="matrix(.072255132599 0 0 .072255132599 -38.072578513394 6.656099665751)"/></g></g></svg>

<?xml version="1.0" encoding="UTF-8" standalone="no"?>
<svg
   xmlns:dc="http://purl.org/dc/elements/1.1/"
   xmlns:cc="http://creativecommons.org/ns#"
   xmlns:rdf="http://www.w3.org/1999/02/22-rdf-syntax-ns#"
   xmlns:svg="http://www.w3.org/2000/svg"
   xmlns="http://www.w3.org/2000/svg"
   xmlns:sodipodi="http://sodipodi.sourceforge.net/DTD/sodipodi-0.dtd"
   xmlns:inkscape="http://www.inkscape.org/namespaces/inkscape"
   height="64"
   viewBox="0 0 64 64"
   width="64"
   version="1.1"
   id="svg33"
   sodipodi:docname="application-vnd.scribus.svg"
   inkscape:version="0.92.5 (2060ec1f9f, 2020-04-08)">
  <metadata
     id="metadata39">
    <rdf:RDF>
      <cc:Work
         rdf:about="">
        <dc:format>image/svg+xml</dc:format>
        <dc:type
           rdf:resource="http://purl.org/dc/dcmitype/StillImage" />
      </cc:Work>
    </rdf:RDF>
  </metadata>
  <defs
     id="defs37" />
  <sodipodi:namedview
     pagecolor="#ffffff"
     bordercolor="#666666"
     borderopacity="1"
     objecttolerance="10"
     gridtolerance="10"
     guidetolerance="10"
     inkscape:pageopacity="0"
     inkscape:pageshadow="2"
     inkscape:window-width="1920"
     inkscape:window-height="915"
     id="namedview35"
     showgrid="false"
     inkscape:zoom="3.6875"
     inkscape:cx="3.9322034"
     inkscape:cy="32"
     inkscape:window-x="0"
     inkscape:window-y="35"
     inkscape:window-maximized="1"
     inkscape:current-layer="g31" />
  <linearGradient
     id="a"
     gradientTransform="matrix(1.0749904,0,0,1.0292896,56.688954,4.0998616)"
     gradientUnits="userSpaceOnUse"
     x1="-74.929466"
     x2="-75.259552"
     y1="52.199436"
     y2="2.356489">
    <stop
       offset="0"
       stop-color="#4864b5"
       id="stop2" />
    <stop
       offset="1"
       stop-color="#8392be"
       id="stop4" />
  </linearGradient>
  <g
     transform="translate(56.391766 -.176777)"
     id="g31">
    <rect
       height="52.831711"
       ry="2.5"
       width="44"
       x="-46.391766"
       y="5.7609215"
       id="rect9"
       style="fill:url(#a)" />
    <g
       transform="matrix(0.81954967,0,0,0.81954967,-4.2342821,15.676887)"
       id="g29"
       style="fill:#ffffff">
      <path
         d="M 44.405,355.411 H 164.434 V 371 h 43.647 v -15.589 h 120.547 v 17.622 h 43.646 V 329.387 H 356.17 V 207.323 h 15.588 V 163.676 H 356.17 V 50.357 h 16.105 V 6.71 h -43.646 v 8.878 H 208.082 V 0 H 164.435 V 15.588 H 44.405 V 4.676 H 0.758 V 48.323 H 16.346 V 163.676 H 0.758 v 43.647 H 16.346 V 327.352 H 0.758 V 371 h 43.647 z m -12.47,0 v 3.118 H 13.229 v -18.706 h 3.118 12.471 3.118 v 3.118 12.47 z M 176.905,15.588 V 12.47 h 18.706 v 3.118 6.521 5.949 3.117 h -18.706 v -3.117 -5.949 z m 18.706,339.823 v 3.118 h -18.706 v -3.118 -6.521 -5.948 -3.118 h 18.706 v 3.118 5.948 z m 2.077,-162.896 c 1.212,1.218 1.212,3.19 0,4.408 -0.615,0.608 -1.406,0.913 -2.21,0.913 -0.792,0 -1.593,-0.305 -2.205,-0.913 l -7.014,-7.015 -7.015,7.015 c -0.612,0.608 -1.409,0.913 -2.207,0.913 -0.798,0 -1.595,-0.305 -2.208,-0.913 -1.214,-1.218 -1.214,-3.19 0,-4.408 l 7.015,-7.015 -7.015,-7.015 c -1.214,-1.214 -1.214,-3.194 0,-4.409 1.215,-1.215 3.194,-1.215 4.409,0 l 7.021,7.015 7.014,-7.015 c 1.218,-1.215 3.191,-1.215 4.409,0 1.218,1.215 1.218,3.194 0,4.409 l -7.015,7.015 z M 359.805,360.562 H 341.1 v -5.151 -12.47 -1.084 h 2.6 12.471 3.635 v 18.705 z m -31.176,-31.175 v 13.555 H 230.977 C 285.402,327.511 328.27,284.644 343.7,230.213 v 99.174 z m 30.658,-134.534 h -3.117 -6.521 -5.949 -3.117 v -18.706 h 3.117 5.949 6.521 3.117 z M 341.1,19.181 h 15.07 3.635 v 18.706 h -3.635 -12.471 -2.6 v -9.828 -8.878 z m -12.471,8.878 v 22.298 h 15.07 v 90.43 C 328.269,86.353 285.401,43.491 230.976,28.058 h 97.653 z M 13.229,17.146 h 3.118 15.588 v 10.912 7.794 H 28.817 16.346 13.228 V 17.146 Z M 44.405,48.323 V 28.059 h 97.134 C 87.111,43.491 44.25,86.353 28.817,140.781 V 48.323 Z M 13.229,176.146 h 3.118 6.521 5.949 3.118 v 18.706 h -3.118 -5.949 -6.521 -3.118 z m 15.588,54.067 C 44.25,284.644 87.111,327.511 141.54,342.942 H 44.405 V 327.353 H 28.817 Z"
         transform="matrix(0.07225513,0,0,0.07225513,-38.072579,6.6560997)"
         id="path27"
         inkscape:connector-curvature="0"
         style="fill:#1f2a47" />
    </g>
  </g>
</svg>
